dist/icons/payment-methods/amex.svg

<svg width="38" height="24" xmlns="http://www.w3.org/2000/svg"><g fill-rule="nonzero" fill="none"><path d="M35 0H3C1.3 0 0 1.3 0 3v18c0 1.7 1.4 3 3 3h32c1.7 0 3-1.3 3-3V3c0-1.7-1.4-3-3-3z" fill="#000" opacity=".07"/><path d="M35 1c1.1 0 2 .9 2 2v18c0 1.1-.9 2-2 2H3c-1.1 0-2-.9-2-2V3c0-1.1.9-2 2-2h32" fill="#006FCF"/><path d="M8.971 10.268l.774 1.876H8.203l.768-1.876zm16.075.078h-2.977v.827h2.929v1.239h-2.923v.922h2.977v.739l2.077-2.245-2.077-2.34-.006.858zm-14.063-2.34h3.995l.887 1.935L16.687 8h10.37l1.078 1.19L29.25 8h4.763l-3.519 3.852 3.483 3.828h-4.834l-1.078-1.19-1.125 1.19H10.03l-.494-1.19h-1.13l-.495 1.19H4L7.286 8h3.43l.267.006zm8.663 1.078h-2.239l-1.5 3.536-1.625-3.536H12.06v4.81L10 9.084H8.007l-2.382 5.512H7.18l.494-1.19h2.596l.494 1.19h2.72v-3.935l1.751 3.941h1.19l1.74-3.929v3.93h1.458l.024-5.52-.001.001zm9.34 2.768l2.531-2.768h-1.822l-1.601 1.726-1.548-1.726h-5.894v5.518h5.81l1.614-1.738 1.548 1.738h1.875l-2.512-2.75h-.001z" fill="#FFF"/></g></svg>

<?xml version="1.0" encoding="UTF-8"?>
<svg width="38px" height="24px" viewBox="0 0 38 24" version="1.1" xmlns="http://www.w3.org/2000/svg" xmlns:xlink="http://www.w3.org/1999/xlink">
    <title>Amex</title>
    <g id="Symbols" stroke="none" stroke-width="1" fill="none" fill-rule="evenodd">
        <g id="Footer/Links/Desktop" transform="translate(-1214.000000, -408.000000)" fill-rule="nonzero">
            <g id="Amex" transform="translate(1214.000000, 408.000000)">
                <path d="M35,0 L3,0 C1.3,0 0,1.3 0,3 L0,21 C0,22.7 1.4,24 3,24 L35,24 C36.7,24 38,22.7 38,21 L38,3 C38,1.3 36.6,0 35,0 Z" id="Path" fill="#000000" opacity="0.07"></path>
                <path d="M35,1 C36.1,1 37,1.9 37,3 L37,21 C37,22.1 36.1,23 35,23 L3,23 C1.9,23 1,22.1 1,21 L1,3 C1,1.9 1.9,1 3,1 L35,1" id="Path" fill="#006FCF"></path>
                <path d="M8.971,10.268 L9.745,12.144 L8.203,12.144 L8.971,10.268 Z M25.046,10.346 L22.069,10.346 L22.069,11.173 L24.998,11.173 L24.998,12.412 L22.075,12.412 L22.075,13.334 L25.052,13.334 L25.052,14.073 L27.129,11.828 L25.052,9.488 L25.046,10.346 L25.046,10.346 Z M10.983,8.006 L14.978,8.006 L15.865,9.941 L16.687,8 L27.057,8 L28.135,9.19 L29.25,8 L34.013,8 L30.494,11.852 L33.977,15.68 L29.143,15.68 L28.065,14.49 L26.94,15.68 L10.03,15.68 L9.536,14.49 L8.406,14.49 L7.911,15.68 L4,15.68 L7.286,8 L10.716,8 L10.983,8.006 Z M19.646,9.084 L17.407,9.084 L15.907,12.62 L14.282,9.084 L12.06,9.084 L12.06,13.894 L10,9.084 L8.007,9.084 L5.625,14.596 L7.18,14.596 L7.674,13.406 L10.27,13.406 L10.764,14.596 L13.484,14.596 L13.484,10.661 L15.235,14.602 L16.425,14.602 L18.165,10.673 L18.165,14.603 L19.623,14.603 L19.647,9.083 L19.646,9.084 Z M28.986,11.852 L31.517,9.084 L29.695,9.084 L28.094,10.81 L26.546,9.084 L20.652,9.084 L20.652,14.602 L26.462,14.602 L28.076,12.864 L29.624,14.602 L31.499,14.602 L28.987,11.852 L28.986,11.852 Z" id="Shape" fill="#FFFFFF"></path>
            </g>
        </g>
    </g>
</svg>
